X: 27811
T: Morshiul Na Mara
R: hornpipe
M: 4/4
K: Eminor
E2 B2 B2 AF|E2 EF EDB,D|E2 B2 B2 AF|DFAd B2 AF|
E2 B2 B2 AF|EGFD ED B,2|DB,A,B, DEFA|dfed dBAF:|
B2 e2 e3g|fede f a3´|Bege Bege|^cdeg fdBA|
B2 e2 e3g|fede f a3´|bege bege|^c2 cd cABA||

